icons/board-code.svg

<svg xmlns="http://www.w3.org/2000/svg" viewBox="0 0 24 24" fill="currentColor">
  <path d="M7 4.25c-1.78579 0-3.25 1.46421-3.25 3.25v6c0 1.7981 1.37646 3.25 3.25 3.25h1.48723c.00902-.0002.01804-.0002.02707 0h6.9716c.009-.0002.018-.0002.027 0H17c1.7858 0 3.25-1.4642 3.25-3.25v-6c0-1.78579-1.4642-3.25-3.25-3.25H7Zm9.9015 14H17c2.6142 0 4.75-2.1358 4.75-4.75v-6c0-2.61421-2.1358-4.75-4.75-4.75H7c-2.61421 0-4.75 2.13579-4.75 4.75v6c0 2.6019 2.02354 4.75 4.75 4.75h.09866l-1.22262 1.8339c-.22976.3447-.13663.8103.20801 1.0401.34465.2298.8103.1366 1.04007-.208l1.77732-2.666h6.19726l1.7773 2.666c.2298.3446.6955.4378 1.0401.208.3447-.2298.4378-.6954.208-1.0401L16.9015 18.25ZM13.2697 7.96967c.2929-.29289.7678-.29289 1.0607 0l1.4 1.39999c.2705.27052.4446.62965.4446 1.03034 0 .4007-.1741.7598-.4446 1.0303l-1.4 1.4c-.2929.2929-.7678.2929-1.0607 0-.2929-.2929-.2929-.7677 0-1.0606L14.6394 10.4l-1.3697-1.36967c-.2929-.29289-.2929-.76777 0-1.06066ZM10.6304 9.1303c.2929-.29289.2929-.76777 0-1.06066s-.76775-.29289-1.06064.00001l-1.39999 1.4-.00001.00001c-.27051.27051-.44466.62964-.44466 1.03034 0 .4007.17415.7598.44467 1.0303l1.39999 1.4c.29289.2929.76774.2929 1.06064 0 .2929-.2929.2929-.7678 0-1.0607L9.26076 10.5l1.36964-1.3697Z"/>
</svg>

<svg width="24" height="24" viewBox="0 0 24 24" fill="none" xmlns="http://www.w3.org/2000/svg">
<path fill-rule="evenodd" clip-rule="evenodd" d="M7 4.25C5.21421 4.25 3.75 5.71421 3.75 7.5V13.5C3.75 15.2981 5.12646 16.75 7 16.75H8.48723C8.49625 16.7498 8.50527 16.7498 8.5143 16.75H15.4859C15.4949 16.7498 15.5039 16.7498 15.5129 16.75H17C18.7858 16.75 20.25 15.2858 20.25 13.5V7.5C20.25 5.71421 18.7858 4.25 17 4.25H7ZM16.9015 18.25H17C19.6142 18.25 21.75 16.1142 21.75 13.5V7.5C21.75 4.88579 19.6142 2.75 17 2.75H7C4.38579 2.75 2.25 4.88579 2.25 7.5V13.5C2.25 16.1019 4.27354 18.25 7 18.25H7.09866L5.87604 20.0839C5.64628 20.4286 5.73941 20.8942 6.08405 21.124C6.4287 21.3538 6.89435 21.2606 7.12412 20.916L8.90144 18.25H15.0987L16.876 20.916C17.1058 21.2606 17.5715 21.3538 17.9161 21.124C18.2608 20.8942 18.3539 20.4286 18.1241 20.0839L16.9015 18.25ZM13.2697 7.96967C13.5626 7.67678 14.0375 7.67678 14.3304 7.96967L15.7304 9.36966C16.0009 9.64018 16.175 9.99931 16.175 10.4C16.175 10.8007 16.0009 11.1598 15.7304 11.4303L14.3304 12.8303C14.0375 13.1232 13.5626 13.1232 13.2697 12.8303C12.9768 12.5374 12.9768 12.0626 13.2697 11.7697L14.6394 10.4L13.2697 9.03033C12.9768 8.73744 12.9768 8.26256 13.2697 7.96967ZM10.6304 9.1303C10.9233 8.83741 10.9233 8.36253 10.6304 8.06964C10.3375 7.77675 9.86265 7.77675 9.56976 8.06965L8.16977 9.46965L8.16976 9.46966C7.89925 9.74017 7.7251 10.0993 7.7251 10.5C7.7251 10.9007 7.89925 11.2598 8.16977 11.5303L9.56976 12.9303C9.86265 13.2232 10.3375 13.2232 10.6304 12.9303C10.9233 12.6374 10.9233 12.1625 10.6304 11.8696L9.26076 10.5L10.6304 9.1303Z" fill="black"/>
</svg>
